icon/gr/google-plus.svg

<svg xmlns="http://www.w3.org/2000/svg" viewBox="0 0 24 24" height="1em" width="1em">
  <path fill="#4285F4" fill-rule="evenodd" d="M0.0202537528,11.2032618 C0.0858884305,7.29693926 3.69605513,3.87603603 7.62298049,4.00635861 C9.5045944,3.91939087 11.2733582,4.73384249 12.7144674,5.87784249 C12.0993693,6.57306829 11.4624794,7.24274571 10.7820061,7.86906829 C9.04956189,6.67810055 6.58579693,6.33771345 4.85335275,7.71345539 C2.37505996,9.41848765 2.26220982,13.4442941 4.64607169,15.2796489 C6.96429889,17.3722941 11.3459973,16.3333264 11.9865191,13.1291973 C10.534514,13.1075199 9.07861756,13.1291973 7.62661245,13.0822296 C7.62298049,12.2205522 7.61934853,11.3588747 7.62298049,10.4974554 C10.0504259,10.4902296 12.4778712,10.4863586 14.9089486,10.5046812 C15.0544863,12.532036 14.7852026,14.6897135 13.5332146,16.3658425 C11.6370729,19.0195199 7.83052098,19.7942296 4.86061667,18.6574554 C1.88007591,17.527907 -0.230870232,14.3962941 0.0202537528,11.2032618 M19.6437253,8.32145539 L21.8091508,8.32145539 C21.8127827,9.04197152 21.8164147,9.76610055 21.8236786,10.4863586 C22.5479949,10.4938425 23.2759431,10.4938425 24,10.5010683 L24,12.6551328 C23.2759431,12.6623586 22.5516269,12.6659715 21.8236786,12.6731973 C21.8164147,13.3970683 21.8127827,14.1175844 21.8091508,14.8381005 L19.6400933,14.8381005 C19.6328294,14.1175844 19.6328294,13.3970683 19.6255655,12.6768102 C18.9012492,12.6695844 18.1735604,12.6623586 17.4492441,12.6551328 L17.4492441,10.5010683 C18.1735604,10.4938425 18.8976172,10.4902296 19.6255655,10.4863586 C19.6291974,9.76248765 19.6364613,9.04197152 19.6437253,8.32145539"/>
</svg>

<svg xmlns="http://www.w3.org/2000/svg" width="24" height="24"><path fill="#4285F4" fill-rule="evenodd" d="M.02 11.203c.066-3.906 3.676-7.327 7.603-7.197 1.882-.087 3.65.728 5.091 1.872a27.061 27.061 0 0 1-1.932 1.991C9.05 6.68 6.586 6.338 4.853 7.713c-2.478 1.705-2.59 5.731-.207 7.567 2.318 2.092 6.7 1.053 7.34-2.15-1.451-.022-2.907 0-4.36-.048-.003-.861-.007-1.723-.003-2.585 2.427-.007 4.855-.01 7.286.008.145 2.027-.124 4.185-1.376 5.86-1.896 2.655-5.702 3.43-8.672 2.292-2.98-1.13-5.092-4.26-4.84-7.454m19.623-2.882h2.165c.004.721.007 1.445.015 2.165.724.008 1.452.008 2.176.015v2.154c-.724.007-1.448.011-2.176.018-.008.724-.011 1.445-.015 2.165H19.64c-.007-.72-.007-1.44-.014-2.161l-2.177-.022v-2.154c.725-.007 1.449-.01 2.177-.015.003-.724.01-1.444.018-2.165"/></svg>
